Newaita-dark/mimetypes/64/application-x-arc.svg

<?xml version="1.0" encoding="UTF-8"?>
<svg xmlns="http://www.w3.org/2000/svg" xmlns:xlink="http://www.w3.org/1999/xlink" width="64pt" height="64pt" viewBox="0 0 64 64" version="1.1">
<defs>
<linearGradient id="linear0" gradientUnits="userSpaceOnUse" x1="254" y1="233.5" x2="254" y2="254.666672" gradientTransform="matrix(0.125012,0,0,0.125012,-0.00000763012,26.87757)">
<stop offset="0" style="stop-color:rgb(0%,0%,0%);stop-opacity:0.27451;"/>
<stop offset="1" style="stop-color:rgb(0%,0%,0%);stop-opacity:0;"/>
</linearGradient>
<radialGradient id="radial0" gradientUnits="userSpaceOnUse" cx="450.908936" cy="189.579361" fx="450.908936" fy="189.579361" r="21.166656" gradientTransform="matrix(0.000000348341,-0.156265,-0.281277,-0.000000203077,106.24586,127.190665)">
<stop offset="0" style="stop-color:rgb(0%,0%,0%);stop-opacity:0.313725;"/>
<stop offset="0.222222" style="stop-color:rgb(0%,0%,0%);stop-opacity:0.27451;"/>
<stop offset="1" style="stop-color:rgb(0%,0%,0%);stop-opacity:0;"/>
</radialGradient>
<radialGradient id="radial1" gradientUnits="userSpaceOnUse" cx="450.908936" cy="189.579361" fx="450.908936" fy="189.579361" r="21.166656" gradientTransform="matrix(-0.000000348341,0.156265,0.281277,0.000000203077,-42.409041,-15.054958)">
<stop offset="0" style="stop-color:rgb(0%,0%,0%);stop-opacity:0.313725;"/>
<stop offset="0.222222" style="stop-color:rgb(0%,0%,0%);stop-opacity:0.27451;"/>
<stop offset="1" style="stop-color:rgb(0%,0%,0%);stop-opacity:0;"/>
</radialGradient>
<radialGradient id="radial2" gradientUnits="userSpaceOnUse" cx="450.908936" cy="189.579361" fx="450.908936" fy="189.579361" r="21.166656" gradientTransform="matrix(-0.000000348341,-0.156265,0.281277,-0.000000203077,-42.409041,127.190665)">
<stop offset="0" style="stop-color:rgb(0%,0%,0%);stop-opacity:0.313725;"/>
<stop offset="0.222222" style="stop-color:rgb(0%,0%,0%);stop-opacity:0.27451;"/>
<stop offset="1" style="stop-color:rgb(0%,0%,0%);stop-opacity:0;"/>
</radialGradient>
<radialGradient id="radial3" gradientUnits="userSpaceOnUse" cx="450.908936" cy="189.579361" fx="450.908936" fy="189.579361" r="21.166656" gradientTransform="matrix(0.000000348341,0.156265,-0.281277,0.000000203077,106.245857,-15.054959)">
<stop offset="0" style="stop-color:rgb(0%,0%,0%);stop-opacity:0.313725;"/>
<stop offset="0.222222" style="stop-color:rgb(0%,0%,0%);stop-opacity:0.27451;"/>
<stop offset="1" style="stop-color:rgb(0%,0%,0%);stop-opacity:0;"/>
</radialGradient>
<linearGradient id="linear1" gradientUnits="userSpaceOnUse" x1="254" y1="-168.666656" x2="254" y2="233.5" gradientTransform="matrix(0.125012,0,0,0.125012,0,26.877566)">
<stop offset="0" style="stop-color:rgb(64.705882%,83.921569%,65.490196%);stop-opacity:1;"/>
<stop offset="1" style="stop-color:rgb(50.588235%,78.039216%,51.764706%);stop-opacity:1;"/>
</linearGradient>
<linearGradient id="linear2" gradientUnits="userSpaceOnUse" x1="148.166687" y1="-168.666809" x2="148.166687" y2="233.499863" gradientTransform="matrix(1,0,0,1,-31.750023,0.000142415)">
<stop offset="0" style="stop-color:rgb(50.588235%,78.039216%,51.764706%);stop-opacity:1;"/>
<stop offset="1" style="stop-color:rgb(40%,73.333333%,41.568627%);stop-opacity:1;"/>
</linearGradient>
<linearGradient id="linear3" gradientUnits="userSpaceOnUse" x1="148.166687" y1="-168.666809" x2="148.166687" y2="233.499863" gradientTransform="matrix(1,0,0,1,201.083313,0.000142415)">
<stop offset="0" style="stop-color:rgb(50.588235%,78.039216%,51.764706%);stop-opacity:1;"/>
<stop offset="1" style="stop-color:rgb(40%,73.333333%,41.568627%);stop-opacity:1;"/>
</linearGradient>
<linearGradient id="linear4" gradientUnits="userSpaceOnUse" x1="960" y1="1115.118164" x2="960" y2="675.118103" gradientTransform="matrix(0.264583,0,0,0.264583,-116.416687,-215)">
<stop offset="0" style="stop-color:rgb(74.117647%,74.117647%,74.117647%);stop-opacity:1;"/>
<stop offset="1" style="stop-color:rgb(87.843137%,87.843137%,87.843137%);stop-opacity:1;"/>
</linearGradient>
<linearGradient id="linear5" gradientUnits="userSpaceOnUse" x1="164.041641" y1="64.166664" x2="164.041641" y2="0.666662" gradientTransform="matrix(1,0,0,1,-21.16667,42.33334)">
<stop offset="0" style="stop-color:rgb(74.117647%,74.117647%,74.117647%);stop-opacity:1;"/>
<stop offset="1" style="stop-color:rgb(87.843137%,87.843137%,87.843137%);stop-opacity:1;"/>
</linearGradient>
<linearGradient id="linear6" gradientUnits="userSpaceOnUse" x1="158.75" y1="-115.75" x2="158.75" y2="286.416656" gradientTransform="matrix(1,0,0,1,-21.16667,-52.91666)">
<stop offset="0" style="stop-color:rgb(64.705882%,83.921569%,65.490196%);stop-opacity:1;"/>
<stop offset="1" style="stop-color:rgb(50.588235%,78.039216%,51.764706%);stop-opacity:1;"/>
</linearGradient>
<linearGradient id="linear7" gradientUnits="userSpaceOnUse" x1="960" y1="1115.118164" x2="960" y2="675.118103" gradientTransform="matrix(0.264583,0,0,0.264583,116.416649,-215)">
<stop offset="0" style="stop-color:rgb(74.117647%,74.117647%,74.117647%);stop-opacity:1;"/>
<stop offset="1" style="stop-color:rgb(87.843137%,87.843137%,87.843137%);stop-opacity:1;"/>
</linearGradient>
<linearGradient id="linear8" gradientUnits="userSpaceOnUse" x1="164.041641" y1="64.166664" x2="164.041641" y2="0.666662" gradientTransform="matrix(1,0,0,1,211.666672,42.33334)">
<stop offset="0" style="stop-color:rgb(74.117647%,74.117647%,74.117647%);stop-opacity:1;"/>
<stop offset="1" style="stop-color:rgb(87.843137%,87.843137%,87.843137%);stop-opacity:1;"/>
</linearGradient>
<linearGradient id="linear9" gradientUnits="userSpaceOnUse" x1="158.75" y1="-115.75" x2="158.75" y2="286.416656" gradientTransform="matrix(1,0,0,1,211.666672,-52.91666)">
<stop offset="0" style="stop-color:rgb(64.705882%,83.921569%,65.490196%);stop-opacity:1;"/>
<stop offset="1" style="stop-color:rgb(50.588235%,78.039216%,51.764706%);stop-opacity:1;"/>
</linearGradient>
</defs>
<g id="surface1">
<path style=" stroke:none;fill-rule:nonzero;fill:rgb(0%,0%,0%);fill-opacity:0.196078;" d="M 7.9375 56.066406 C 6.472656 56.066406 5.292969 54.886719 5.292969 53.421875 L 5.292969 53.089844 C 5.292969 54.558594 6.472656 55.738281 7.9375 55.738281 L 55.566406 55.738281 C 57.035156 55.738281 58.214844 54.558594 58.214844 53.089844 L 58.214844 53.421875 C 58.214844 54.886719 57.035156 56.066406 55.566406 56.066406 Z M 7.9375 56.066406 "/>
<path style=" stroke:none;fill-rule:nonzero;fill:url(#linear0);" d="M 10.253906 56.066406 L 53.582031 56.066406 L 53.582031 58.714844 L 10.253906 58.714844 Z M 10.253906 56.066406 "/>
<path style=" stroke:none;fill-rule:nonzero;fill:url(#radial0);" d="M 53.582031 56.066406 L 58.875 56.066406 L 58.875 53.421875 L 53.582031 53.421875 Z M 53.582031 56.066406 "/>
<path style=" stroke:none;fill-rule:nonzero;fill:url(#radial1);" d="M 10.253906 56.066406 L 4.960938 56.066406 L 4.960938 58.714844 L 10.253906 58.714844 Z M 10.253906 56.066406 "/>
<path style=" stroke:none;fill-rule:nonzero;fill:url(#radial2);" d="M 10.253906 56.066406 L 4.960938 56.066406 L 4.960938 53.421875 L 10.253906 53.421875 Z M 10.253906 56.066406 "/>
<path style=" stroke:none;fill-rule:nonzero;fill:url(#radial3);" d="M 53.582031 56.066406 L 58.875 56.066406 L 58.875 58.714844 L 53.582031 58.714844 Z M 53.582031 56.066406 "/>
<path style=" stroke:none;fill-rule:nonzero;fill:url(#linear1);" d="M 7.277344 5.792969 L 56.230469 5.792969 C 57.324219 5.792969 58.214844 6.679688 58.214844 7.777344 L 58.214844 54.082031 C 58.214844 55.179688 57.324219 56.066406 56.230469 56.066406 L 7.277344 56.066406 C 6.179688 56.066406 5.292969 55.179688 5.292969 54.082031 L 5.292969 7.777344 C 5.292969 6.679688 6.179688 5.792969 7.277344 5.792969 Z M 7.277344 5.792969 "/>
<path style=" stroke:none;fill-rule:nonzero;fill:rgb(100%,100%,100%);fill-opacity:0.392157;" d="M 7.277344 5.792969 C 6.175781 5.792969 5.292969 6.675781 5.292969 7.777344 L 5.292969 8.4375 C 5.292969 7.339844 6.175781 6.453125 7.277344 6.453125 L 56.230469 6.453125 C 57.328125 6.453125 58.214844 7.339844 58.214844 8.4375 L 58.214844 7.777344 C 58.214844 6.675781 57.328125 5.792969 56.230469 5.792969 Z M 7.277344 5.792969 "/>
<path style=" stroke:none;fill-rule:nonzero;fill:rgb(1.960784%,1.960784%,1.960784%);fill-opacity:0.235294;" d="M 7.277344 56.066406 C 6.175781 56.066406 5.292969 55.183594 5.292969 54.082031 L 5.292969 53.421875 C 5.292969 54.519531 6.175781 55.40625 7.277344 55.40625 L 56.230469 55.40625 C 57.328125 55.40625 58.214844 54.519531 58.214844 53.421875 L 58.214844 54.082031 C 58.214844 55.183594 57.328125 56.066406 56.230469 56.066406 Z M 7.277344 56.066406 "/>
<path style=" stroke:none;fill-rule:nonzero;fill:rgb(12.941177%,12.941177%,12.941177%);fill-opacity:1;" d="M 7.277344 5.605469 C 6.078125 5.605469 5.105469 6.578125 5.105469 7.777344 L 5.105469 54.082031 C 5.105469 55.285156 6.078125 56.253906 7.277344 56.253906 L 56.230469 56.253906 C 57.429688 56.253906 58.402344 55.285156 58.402344 54.082031 L 58.402344 7.777344 C 58.402344 6.578125 57.429688 5.605469 56.230469 5.605469 Z M 7.277344 5.980469 L 56.230469 5.980469 C 57.226562 5.980469 58.027344 6.777344 58.027344 7.777344 L 58.027344 54.082031 C 58.027344 55.082031 57.226562 55.878906 56.230469 55.878906 L 7.277344 55.878906 C 6.277344 55.878906 5.480469 55.082031 5.480469 54.082031 L 5.480469 7.777344 C 5.480469 6.777344 6.277344 5.980469 7.277344 5.980469 Z M 7.277344 5.980469 "/>
<path style="fill-rule:nonzero;fill:url(#linear2);stroke-width:3;stroke-linecap:round;stroke-linejoin:miter;stroke:rgb(12.941177%,12.941177%,12.941177%);stroke-opacity:1;stroke-miterlimit:4;" d="M 105.833643 -62.827032 L 169.32758 -62.827032 C 175.170772 -62.827032 179.920318 -58.108732 179.920318 -52.234293 L 179.920318 106.500548 C 179.920318 112.34374 175.170772 117.093287 169.32758 117.093287 L 105.833643 117.093287 C 99.990451 117.093287 95.240905 112.34374 95.240905 106.500548 L 95.240905 -52.234293 C 95.240905 -58.108732 99.990451 -62.827032 105.833643 -62.827032 Z M 105.833643 -62.827032 " transform="matrix(0.125012,0,0,0.125012,0,26.877566)"/>
<path style="fill-rule:nonzero;fill:url(#linear3);stroke-width:3;stroke-linecap:round;stroke-linejoin:miter;stroke:rgb(12.941177%,12.941177%,12.941177%);stroke-opacity:1;stroke-miterlimit:4;" d="M 338.65516 -62.827032 L 402.180344 -62.827032 C 408.023536 -62.827032 412.741835 -58.108732 412.741835 -52.234293 L 412.741835 106.500548 C 412.741835 112.34374 408.023536 117.093287 402.180344 117.093287 L 338.65516 117.093287 C 332.811968 117.093287 328.093669 112.34374 328.093669 106.500548 L 328.093669 -52.234293 C 328.093669 -58.108732 332.811968 -62.827032 338.65516 -62.827032 Z M 338.65516 -62.827032 " transform="matrix(0.125012,0,0,0.125012,0,26.877566)"/>
<path style=" stroke:none;fill-rule:nonzero;fill:rgb(0%,0%,0%);fill-opacity:0.196078;" d="M 5.292969 30.597656 L 58.214844 30.597656 L 58.214844 30.929688 L 5.292969 30.929688 Z M 5.292969 30.597656 "/>
<path style=" stroke:none;fill-rule:nonzero;fill:rgb(90.196079%,90.196079%,90.196079%);fill-opacity:0.588235;" d="M 5.292969 30.929688 L 58.214844 30.929688 L 58.214844 31.261719 L 5.292969 31.261719 Z M 5.292969 30.929688 "/>
<path style=" stroke:none;fill-rule:nonzero;fill:rgb(12.941177%,12.941177%,12.941177%);fill-opacity:0.992157;" d="M 5.292969 30.765625 L 58.214844 30.765625 L 58.214844 31.09375 L 5.292969 31.09375 Z M 5.292969 30.765625 "/>
<path style="fill-rule:nonzero;fill:url(#linear4);stroke-width:3;stroke-linecap:round;stroke-linejoin:round;stroke:rgb(12.941177%,12.941177%,12.941177%);stroke-opacity:1;stroke-miterlimit:4;" d="M 116.426382 -36.360809 C 110.551943 -36.360809 105.833643 -31.64251 105.833643 -25.799318 L 105.833643 69.472834 C 105.833643 75.316026 110.551943 80.034326 116.426382 80.034326 L 158.734842 80.034326 C 164.609281 80.034326 169.32758 75.316026 169.32758 69.472834 L 169.32758 -25.799318 C 169.32758 -31.64251 164.609281 -36.360809 158.734842 -36.360809 Z M 119.051131 -28.424067 L 156.110092 -28.424067 C 159.047312 -28.424067 161.390838 -26.080541 161.390838 -23.143321 L 161.390838 66.816838 C 161.390838 69.754057 159.047312 72.097584 156.110092 72.097584 L 119.051131 72.097584 C 116.145159 72.097584 113.770385 69.754057 113.770385 66.816838 L 113.770385 -23.143321 C 113.770385 -26.080541 116.145159 -28.424067 119.051131 -28.424067 Z M 119.051131 -28.424067 " transform="matrix(0.125012,0,0,0.125012,0,26.877566)"/>
<path style="fill-rule:nonzero;fill:url(#linear5);stroke-width:3;stroke-linecap:round;stroke-linejoin:miter;stroke:rgb(12.941177%,12.941177%,12.941177%);stroke-opacity:1;stroke-miterlimit:4;" d="M 126.987873 43.006612 L 148.17335 43.006612 C 154.016542 43.006612 158.734842 47.724911 158.734842 53.568103 L 158.734842 95.90781 C 158.734842 101.751002 154.016542 106.500548 148.17335 106.500548 L 126.987873 106.500548 C 121.144681 106.500548 116.426382 101.751002 116.426382 95.90781 L 116.426382 53.568103 C 116.426382 47.724911 121.144681 43.006612 126.987873 43.006612 Z M 126.987873 43.006612 " transform="matrix(0.125012,0,0,0.125012,0,26.877566)"/>
<path style="fill-rule:nonzero;fill:url(#linear6);stroke-width:3;stroke-linecap:round;stroke-linejoin:miter;stroke:rgb(12.941177%,12.941177%,12.941177%);stroke-opacity:1;stroke-miterlimit:4;" d="M 126.987873 -52.26554 L 148.17335 -52.26554 C 154.016542 -52.26554 158.734842 -47.515994 158.734842 -41.672802 L 158.734842 -25.799318 C 158.734842 -19.956126 154.016542 -15.206579 148.17335 -15.206579 L 126.987873 -15.206579 C 121.144681 -15.206579 116.426382 -19.956126 116.426382 -25.799318 L 116.426382 -41.672802 C 116.426382 -47.515994 121.144681 -52.26554 126.987873 -52.26554 Z M 126.987873 -52.26554 " transform="matrix(0.125012,0,0,0.125012,0,26.877566)"/>
<path style="fill-rule:nonzero;fill:url(#linear7);stroke-width:3;stroke-linecap:round;stroke-linejoin:round;stroke:rgb(12.941177%,12.941177%,12.941177%);stroke-opacity:1;stroke-miterlimit:4;" d="M 349.247898 -36.360809 C 343.373459 -36.360809 338.65516 -31.64251 338.65516 -25.799318 L 338.65516 69.472834 C 338.65516 75.316026 343.373459 80.034326 349.247898 80.034326 L 391.587605 80.034326 C 397.462044 80.034326 402.180344 75.316026 402.180344 69.472834 L 402.180344 -25.799318 C 402.180344 -31.64251 397.462044 -36.360809 391.587605 -36.360809 Z M 351.903895 -28.424067 L 388.931609 -28.424067 C 391.868828 -28.424067 394.243602 -26.080541 394.243602 -23.143321 L 394.243602 66.816838 C 394.243602 69.754057 391.868828 72.097584 388.931609 72.097584 L 351.903895 72.097584 C 348.966675 72.097584 346.591902 69.754057 346.591902 66.816838 L 346.591902 -23.143321 C 346.591902 -26.080541 348.966675 -28.424067 351.903895 -28.424067 Z M 351.903895 -28.424067 " transform="matrix(0.125012,0,0,0.125012,0,26.877566)"/>
<path style="fill-rule:nonzero;fill:url(#linear8);stroke-width:3;stroke-linecap:round;stroke-linejoin:miter;stroke:rgb(12.941177%,12.941177%,12.941177%);stroke-opacity:1;stroke-miterlimit:4;" d="M 359.840637 43.006612 L 380.994867 43.006612 C 386.838059 43.006612 391.587605 47.724911 391.587605 53.568103 L 391.587605 95.90781 C 391.587605 101.751002 386.838059 106.500548 380.994867 106.500548 L 359.840637 106.500548 C 353.997445 106.500548 349.247898 101.751002 349.247898 95.90781 L 349.247898 53.568103 C 349.247898 47.724911 353.997445 43.006612 359.840637 43.006612 Z M 359.840637 43.006612 " transform="matrix(0.125012,0,0,0.125012,0,26.877566)"/>
<path style="fill-rule:nonzero;fill:url(#linear9);stroke-width:3;stroke-linecap:round;stroke-linejoin:miter;stroke:rgb(12.941177%,12.941177%,12.941177%);stroke-opacity:1;stroke-miterlimit:4;" d="M 359.840637 -52.26554 L 380.994867 -52.26554 C 386.838059 -52.26554 391.587605 -47.515994 391.587605 -41.672802 L 391.587605 -25.799318 C 391.587605 -19.956126 386.838059 -15.206579 380.994867 -15.206579 L 359.840637 -15.206579 C 353.997445 -15.206579 349.247898 -19.956126 349.247898 -25.799318 L 349.247898 -41.672802 C 349.247898 -47.515994 353.997445 -52.26554 359.840637 -52.26554 Z M 359.840637 -52.26554 " transform="matrix(0.125012,0,0,0.125012,0,26.877566)"/>
</g>
</svg>

<svg xmlns="http://www.w3.org/2000/svg" width="64pt" height="64pt" viewBox="0 0 64 64"><defs><linearGradient id="a" gradientUnits="userSpaceOnUse" x1="254" y1="233.5" x2="254" y2="254.667" gradientTransform="translate(0 26.878) scale(.12501)"><stop offset="0" stop-opacity=".275"/><stop offset="1" stop-opacity="0"/></linearGradient><radialGradient id="b" gradientUnits="userSpaceOnUse" cx="450.909" cy="189.579" fx="450.909" fy="189.579" r="21.167" gradientTransform="matrix(0 -.15626 -.28128 0 106.246 127.19)"><stop offset="0" stop-opacity=".314"/><stop offset=".222" stop-opacity=".275"/><stop offset="1" stop-opacity="0"/></radialGradient><radialGradient id="c" gradientUnits="userSpaceOnUse" cx="450.909" cy="189.579" fx="450.909" fy="189.579" r="21.167" gradientTransform="matrix(0 .15626 .28128 0 -42.409 -15.055)"><stop offset="0" stop-opacity=".314"/><stop offset=".222" stop-opacity=".275"/><stop offset="1" stop-opacity="0"/></radialGradient><radialGradient id="d" gradientUnits="userSpaceOnUse" cx="450.909" cy="189.579" fx="450.909" fy="189.579" r="21.167" gradientTransform="matrix(0 -.15626 .28128 0 -42.409 127.19)"><stop offset="0" stop-opacity=".314"/><stop offset=".222" stop-opacity=".275"/><stop offset="1" stop-opacity="0"/></radialGradient><radialGradient id="e" gradientUnits="userSpaceOnUse" cx="450.909" cy="189.579" fx="450.909" fy="189.579" r="21.167" gradientTransform="matrix(0 .15626 -.28128 0 106.246 -15.055)"><stop offset="0" stop-opacity=".314"/><stop offset=".222" stop-opacity=".275"/><stop offset="1" stop-opacity="0"/></radialGradient><linearGradient id="f" gradientUnits="userSpaceOnUse" x1="254" y1="-168.667" x2="254" y2="233.5" gradientTransform="translate(0 26.878) scale(.12501)"><stop offset="0" stop-color="#a5d6a7"/><stop offset="1" stop-color="#81c784"/></linearGradient><linearGradient id="g" gradientUnits="userSpaceOnUse" x1="148.167" y1="-168.667" x2="148.167" y2="233.5" gradientTransform="translate(-31.75)"><stop offset="0" stop-color="#81c784"/><stop offset="1" stop-color="#66bb6a"/></linearGradient><linearGradient id="h" gradientUnits="userSpaceOnUse" x1="148.167" y1="-168.667" x2="148.167" y2="233.5" gradientTransform="translate(201.083)"><stop offset="0" stop-color="#81c784"/><stop offset="1" stop-color="#66bb6a"/></linearGradient><linearGradient id="i" gradientUnits="userSpaceOnUse" x1="960" y1="1115.118" x2="960" y2="675.118" gradientTransform="matrix(.26458 0 0 .26458 -116.417 -215)"><stop offset="0" stop-color="#bdbdbd"/><stop offset="1" stop-color="#e0e0e0"/></linearGradient><linearGradient id="j" gradientUnits="userSpaceOnUse" x1="164.042" y1="64.167" x2="164.042" y2=".667" gradientTransform="translate(-21.167 42.333)"><stop offset="0" stop-color="#bdbdbd"/><stop offset="1" stop-color="#e0e0e0"/></linearGradient><linearGradient id="k" gradientUnits="userSpaceOnUse" x1="158.75" y1="-115.75" x2="158.75" y2="286.417" gradientTransform="translate(-21.167 -52.917)"><stop offset="0" stop-color="#a5d6a7"/><stop offset="1" stop-color="#81c784"/></linearGradient><linearGradient id="l" gradientUnits="userSpaceOnUse" x1="960" y1="1115.118" x2="960" y2="675.118" gradientTransform="matrix(.26458 0 0 .26458 116.417 -215)"><stop offset="0" stop-color="#bdbdbd"/><stop offset="1" stop-color="#e0e0e0"/></linearGradient><linearGradient id="m" gradientUnits="userSpaceOnUse" x1="164.042" y1="64.167" x2="164.042" y2=".667" gradientTransform="translate(211.667 42.333)"><stop offset="0" stop-color="#bdbdbd"/><stop offset="1" stop-color="#e0e0e0"/></linearGradient><linearGradient id="n" gradientUnits="userSpaceOnUse" x1="158.75" y1="-115.75" x2="158.75" y2="286.417" gradientTransform="translate(211.667 -52.917)"><stop offset="0" stop-color="#a5d6a7"/><stop offset="1" stop-color="#81c784"/></linearGradient></defs><path d="M7.938 56.066a2.639 2.639 0 0 1-2.645-2.644v-.332a2.64 2.64 0 0 0 2.644 2.648h47.63a2.64 2.64 0 0 0 2.648-2.648v.332a2.64 2.64 0 0 1-2.649 2.644zm0 0" fill-opacity=".196"/><path d="M10.254 56.066h43.328v2.649H10.254zm0 0" fill="url(#a)"/><path d="M53.582 56.066h5.293v-2.644h-5.293zm0 0" fill="url(#b)"/><path d="M10.254 56.066H4.96v2.649h5.293zm0 0" fill="url(#c)"/><path d="M10.254 56.066H4.96v-2.644h5.293zm0 0" fill="url(#d)"/><path d="M53.582 56.066h5.293v2.649h-5.293zm0 0" fill="url(#e)"/><path d="M7.277 5.793H56.23c1.094 0 1.985.887 1.985 1.984v46.305c0 1.098-.89 1.984-1.985 1.984H7.277a1.982 1.982 0 0 1-1.984-1.984V7.777c0-1.097.887-1.984 1.984-1.984zm0 0" fill="url(#f)"/><path d="M7.277 5.793a1.977 1.977 0 0 0-1.984 1.984v.66a1.98 1.98 0 0 1 1.984-1.984H56.23c1.098 0 1.985.887 1.985 1.984v-.66a1.98 1.98 0 0 0-1.985-1.984zm0 0" fill="#fff" fill-opacity=".392"/><path d="M7.277 56.066a1.977 1.977 0 0 1-1.984-1.984v-.66a1.98 1.98 0 0 0 1.984 1.984H56.23a1.982 1.982 0 0 0 1.985-1.984v.66a1.98 1.98 0 0 1-1.985 1.984zm0 0" fill="#050505" fill-opacity=".235"/><path d="M7.277 5.605c-1.199 0-2.172.973-2.172 2.172v46.305a2.17 2.17 0 0 0 2.172 2.172H56.23a2.17 2.17 0 0 0 2.172-2.172V7.777c0-1.199-.972-2.172-2.172-2.172zm0 .375H56.23a1.79 1.79 0 0 1 1.797 1.797v46.305c0 1-.8 1.797-1.797 1.797H7.277c-1 0-1.797-.797-1.797-1.797V7.777c0-1 .797-1.797 1.797-1.797zm0 0" fill="#212121"/><path d="M105.834-62.827h63.494a10.582 10.582 0 0 1 10.592 10.593V106.5c0 5.843-4.75 10.592-10.592 10.592h-63.494c-5.844 0-10.593-4.75-10.593-10.592V-52.234c0-5.875 4.75-10.593 10.593-10.593zm0 0" transform="translate(0 26.878) scale(.12501)" fill="url(#g)" stroke-width="3" stroke-linecap="round" stroke="#212121"/><path d="M338.655-62.827h63.525c5.844 0 10.562 4.718 10.562 10.593V106.5c0 5.843-4.718 10.592-10.562 10.592h-63.525c-5.843 0-10.561-4.75-10.561-10.592V-52.234c0-5.875 4.718-10.593 10.561-10.593zm0 0" transform="translate(0 26.878) scale(.12501)" fill="url(#h)" stroke-width="3" stroke-linecap="round" stroke="#212121"/><path d="M5.293 30.598h52.922v.332H5.293zm0 0" fill-opacity=".196"/><path d="M5.293 30.93h52.922v.332H5.293zm0 0" fill="#e6e6e6" fill-opacity=".588"/><path d="M5.293 30.766h52.922v.328H5.293zm0 0" fill="#212121" fill-opacity=".992"/><path d="M116.426-36.36c-5.874 0-10.592 4.717-10.592 10.56v95.273c0 5.843 4.718 10.561 10.592 10.561h42.309c5.874 0 10.593-4.718 10.593-10.561V-25.8c0-5.844-4.719-10.562-10.593-10.562zm2.625 7.936h37.06a5.254 5.254 0 0 1 5.28 5.28v89.96a5.254 5.254 0 0 1-5.28 5.282h-37.06a5.274 5.274 0 0 1-5.28-5.281v-89.96a5.274 5.274 0 0 1 5.28-5.281zm0 0" transform="translate(0 26.878) scale(.12501)" fill="url(#i)" stroke-width="3" stroke-linecap="round" stroke-linejoin="round" stroke="#212121"/><path d="M126.988 43.007h21.185a10.548 10.548 0 0 1 10.562 10.561v42.34c0 5.843-4.718 10.593-10.562 10.593h-21.185c-5.843 0-10.562-4.75-10.562-10.593v-42.34a10.548 10.548 0 0 1 10.562-10.561zm0 0" transform="translate(0 26.878) scale(.12501)" fill="url(#j)" stroke-width="3" stroke-linecap="round" stroke="#212121"/><path d="M126.988-52.266h21.185c5.844 0 10.562 4.75 10.562 10.593v15.874c0 5.843-4.718 10.592-10.562 10.592h-21.185c-5.843 0-10.562-4.75-10.562-10.592v-15.874c0-5.843 4.719-10.593 10.562-10.593zm0 0" transform="translate(0 26.878) scale(.12501)" fill="url(#k)" stroke-width="3" stroke-linecap="round" stroke="#212121"/><path d="M349.248-36.36c-5.875 0-10.593 4.717-10.593 10.56v95.273c0 5.843 4.718 10.561 10.593 10.561h42.34c5.874 0 10.592-4.718 10.592-10.561V-25.8c0-5.844-4.718-10.562-10.592-10.562zm2.656 7.936h37.028c2.937 0 5.312 2.343 5.312 5.28v89.96c0 2.938-2.375 5.282-5.312 5.282h-37.028c-2.937 0-5.312-2.344-5.312-5.281v-89.96c0-2.938 2.375-5.281 5.312-5.281zm0 0" transform="translate(0 26.878) scale(.12501)" fill="url(#l)" stroke-width="3" stroke-linecap="round" stroke-linejoin="round" stroke="#212121"/><path d="M359.84 43.007h21.155c5.843 0 10.593 4.718 10.593 10.561v42.34c0 5.843-4.75 10.593-10.593 10.593H359.84c-5.844 0-10.593-4.75-10.593-10.593v-42.34c0-5.843 4.75-10.561 10.593-10.561zm0 0" transform="translate(0 26.878) scale(.12501)" fill="url(#m)" stroke-width="3" stroke-linecap="round" stroke="#212121"/><path d="M359.84-52.266h21.155c5.843 0 10.593 4.75 10.593 10.593v15.874c0 5.843-4.75 10.592-10.593 10.592H359.84c-5.844 0-10.593-4.75-10.593-10.592v-15.874c0-5.843 4.75-10.593 10.593-10.593zm0 0" transform="translate(0 26.878) scale(.12501)" fill="url(#n)" stroke-width="3" stroke-linecap="round" stroke="#212121"/></svg>
